packages/vibrant-icons/assets/icons/ChevronLeftCircle/Thin.svg

<svg width="24" height="24" viewBox="0 0 24 24" fill="none" xmlns="http://www.w3.org/2000/svg">
<path d="M13.689 6.35092C13.6109 6.27281 13.4842 6.27282 13.4061 6.35095L7.90009 11.8591C7.82202 11.9372 7.82202 12.0638 7.90009 12.1419L13.406 17.6495C13.4841 17.7276 13.6107 17.7276 13.6889 17.6495L14.6085 16.7299C14.6866 16.6518 14.6866 16.5252 14.6085 16.4471L10.1632 12L14.6087 7.55339C14.6868 7.47529 14.6867 7.34867 14.6086 7.27057L13.689 6.35092Z" fill="#0C0C0C"/>
<path fill-rule="evenodd" clip-rule="evenodd" d="M1.15015 11.9999C1.15015 17.9924 6.00764 22.8499 12.0001 22.8499C17.9926 22.8499 22.8501 17.9924 22.8501 11.9999C22.8501 6.0074 17.9926 1.1499 12.0001 1.1499C6.00764 1.1499 1.15015 6.0074 1.15015 11.9999ZM21.1501 11.9999C21.1501 17.0454 17.0456 21.1499 12.0001 21.1499C6.95465 21.1499 2.85015 17.0454 2.85015 11.9999C2.85015 6.9544 6.95465 2.8499 12.0001 2.8499C17.0456 2.8499 21.1501 6.9544 21.1501 11.9999Z" fill="#0C0C0C"/>
</svg>

<svg xmlns="http://www.w3.org/2000/svg" width="24" height="24" fill="none"><path fill="#0C0C0C" d="M13.689 6.35a.2.2 0 0 0-.283.001L7.9 11.859a.2.2 0 0 0 0 .283l5.506 5.508a.2.2 0 0 0 .283 0l.92-.92a.2.2 0 0 0 0-.283L10.163 12l4.446-4.447a.2.2 0 0 0 0-.282z"/><path fill="#0C0C0C" fill-rule="evenodd" d="M1.15 12c0 5.992 4.858 10.85 10.85 10.85 5.993 0 10.85-4.858 10.85-10.85 0-5.993-4.857-10.85-10.85-10.85S1.15 6.007 1.15 12m20 0c0 5.045-4.104 9.15-9.15 9.15-5.045 0-9.15-4.105-9.15-9.15 0-5.046 4.105-9.15 9.15-9.15 5.046 0 9.15 4.104 9.15 9.15" clip-rule="evenodd"/></svg>
